X: 11600
T: Egan's
R: jig
M: 6/8
K: Aminor
AEA cBA|AEA c2B|Ace edc|B/c/d B GBE|
AEA cBA|AEA c2B|Ac/d/e edc|BAG A3:|
B3 Bcd|dcB c2A|e2e a2g|fge dcd|
e2e g^fe|ede g^fe|egb bag|^fed e3|
^fga aba|ag^f ed^c|d2^f g^fe|^fed d3|
Bcd ded|cde e3|e^fg aed|cBA edc||

